twitch.svg

<svg viewBox="0 0 24 24" xmlns="http://www.w3.org/2000/svg"><path d="M20.5723 12.734L17.1429 16.1632L11.7558 16.1632L8.817 19.1015L8.817 16.1632L4.40888 16.1632L4.40888 1.95914L20.5723 1.95914L20.5723 12.734ZM2.44899 0L1.46954 3.91853L1.46954 21.5505L5.87817 21.5505L5.87817 24L8.3264 24L10.7761 21.5505L14.6939 21.5505L22.5305 13.715L22.5305 7.18699e-07C22.5305 7.18699e-07 2.44898 7.18699e-07 2.44899 0ZM9.79644 11.7553L11.7556 11.7553L11.7556 5.87683L9.79644 5.87683L9.79644 11.7553ZM15.1838 11.7553L17.1429 11.7553L17.1429 5.87683L15.1838 5.87683L15.1838 11.7553Z" fill="#6441a5"/></svg>

<svg viewBox="0 0 24 24" xmlns="http://www.w3.org/2000/svg"><path d="m20.572 12.734-3.43 3.43h-5.386l-2.939 2.938v-2.939H4.409V1.96h16.163v10.775ZM2.45 0l-.98 3.919V21.55h4.41V24h2.447l2.45-2.45h3.918l7.836-7.835V0H2.45Zm7.347 11.755h1.96V5.877h-1.96v5.878Zm5.388 0h1.959V5.877h-1.96v5.878Z" fill="#6441a5"/></svg>
